vendor/shopware/storefront/Resources/app/storefront/dist/assets/icon/default/chart-sales.svg

<svg xmlns="http://www.w3.org/2000/svg" width="24" height="24" viewBox="0 0 24 24">
  <path fill="#758CA3" fill-rule="evenodd" d="M18.5857864,6 L16,6 C15.4477153,6 15,5.55228475 15,5 C15,4.44771525 15.4477153,4 16,4 L21,4 C21.5522847,4 22,4.44771525 22,5 L22,10 C22,10.5522847 21.5522847,11 21,11 C20.4477153,11 20,10.5522847 20,10 L20,7.41421356 L14.7071068,12.7071068 C14.3165825,13.0976311 13.6834175,13.0976311 13.2928932,12.7071068 L12,11.4142136 L5.70710678,17.7071068 C5.31658249,18.0976311 4.68341751,18.0976311 4.29289322,17.7071068 C3.90236893,17.3165825 3.90236893,16.6834175 4.29289322,16.2928932 L11.2928932,9.29289322 C11.6834175,8.90236893 12.3165825,8.90236893 12.7071068,9.29289322 L14,10.5857864 L18.5857864,6 Z M-4.4408921e-16,1 C-4.4408921e-16,0.44771525 0.44771525,-8.8817842e-16 1,-8.8817842e-16 C1.55228475,-8.8817842e-16 2,0.44771525 2,1 L2,21 C2,21.5522847 2.44771525,22 3,22 L23,22 C23.5522847,22 24,22.4477153 24,23 C24,23.5522847 23.5522847,24 23,24 L3,24 C1.34314575,24 -1.11022302e-16,22.6568542 -4.4408921e-16,21 L-4.4408921e-16,1 Z"/>
</svg>

<svg xmlns="http://www.w3.org/2000/svg" width="24" height="24" viewBox="0 0 24 24"><path fill="#758CA3" fill-rule="evenodd" d="M18.5858 6H16c-.5523 0-1-.4477-1-1s.4477-1 1-1h5c.5523 0 1 .4477 1 1v5c0 .5523-.4477 1-1 1s-1-.4477-1-1V7.4142l-5.2929 5.293c-.3905.3904-1.0237.3904-1.4142 0L12 11.4141l-6.2929 6.293c-.3905.3904-1.0237.3904-1.4142 0-.3905-.3906-.3905-1.0238 0-1.4143l7-7c.3905-.3905 1.0237-.3905 1.4142 0L14 10.5858 18.5858 6zM0 1c0-.5523.4477-1 1-1s1 .4477 1 1v20c0 .5523.4477 1 1 1h20c.5523 0 1 .4477 1 1s-.4477 1-1 1H3c-1.6569 0-3-1.3431-3-3V1z"/></svg>
